X: 30144
T: Old Climber, The
R: waltz
M: 3/4
K: Eminor
EF|G4GA|F4BF|FGE2 D2|E4 GA|B4 Bc|A3 ddc|cBG2F2|G3 D G/A/B|
c3 BAG|F3 BBA|ABG2 F2|G4 EF|G2B2A2|F4 BF|FGE2 D2|E3 DGF|
G2B2 G2|A3DAB|cEE G2G/A/|F3DGF|GDB2d2|A3 DAB|cEE G2 B/c/|A3 DAB|
c2edcB|BcA2 dc|B3AGF|G4 EF|G2B2A2|F4 BF|FGE2D2|E4||

